src/images/gamePlatforms/ps_icon.svg

<svg width="64" height="50" viewBox="0 0 64 50" fill="none" xmlns="http://www.w3.org/2000/svg">
<path d="M32.1711 2.76444C29.4909 2.0064 26.798 1.27912 24.0584 0.77002C24.0565 15.8424 24.0551 30.9144 24.0584 45.9863C27.4776 47.0694 30.8972 48.1512 34.3173 49.2316C34.3222 41.874 34.3214 34.5159 34.3206 27.1577C34.32 21.8439 34.3195 16.53 34.321 11.2163C34.3421 10.4979 34.4637 9.73141 34.9271 9.15425C35.2059 8.79387 35.6862 8.6032 36.1365 8.68851C36.5817 8.78222 37.0251 8.95565 37.3665 9.26288C37.8824 9.70717 38.1499 10.3669 38.2719 11.0214C38.406 11.6741 38.4016 12.3391 38.3971 13.0027C38.3958 13.198 38.3946 13.3931 38.3968 13.5879C38.3994 15.366 38.398 17.1444 38.3965 18.9229C38.3941 21.8779 38.3917 24.8331 38.408 27.788C39.8358 28.4509 41.3796 28.9563 42.9706 28.94C44.0196 28.961 45.0784 28.7241 46.0035 28.2272C46.9678 27.7115 47.7624 26.9111 48.3339 25.9861C48.9812 24.9386 49.3703 23.7493 49.5891 22.5432C49.8529 21.1553 49.8557 19.7371 49.8108 18.331C49.7154 16.1762 49.3927 13.9846 48.4504 12.0228C47.9332 10.9363 47.2281 9.94922 46.3673 9.1067C45.5728 8.29923 44.643 7.63722 43.6749 7.0512C41.5138 5.77193 39.138 4.91412 36.752 4.15653C35.233 3.66748 33.7037 3.20827 32.1711 2.76444Z" fill="#EBEBF5"/>
<path d="M14.3594 30.8296C12.4692 31.4998 10.5789 32.1701 8.68788 32.8375C8.36215 32.9558 8.03486 33.0702 7.70753 33.1847C6.94219 33.4525 6.17661 33.7203 5.43007 34.037C4.19448 34.5545 2.97432 35.1354 1.86874 35.8967C1.39078 36.2212 0.956778 36.638 0.708444 37.1662C0.450756 37.6953 0.435791 38.3284 0.642502 38.8772C0.889433 39.5247 1.37488 40.0511 1.91738 40.4697C2.90323 41.2166 4.07616 41.6707 5.25609 42.0115C8.85484 43.1919 12.6523 43.7765 16.441 43.6912C18.3224 43.6614 20.1954 43.4366 22.0465 43.1052C22.0664 42.9068 22.0645 42.7069 22.0627 42.5071C22.0618 42.4111 22.0609 42.3151 22.0624 42.2194C22.0613 41.6679 22.0619 41.1165 22.0625 40.5652C22.0635 39.6393 22.0644 38.7137 22.0577 37.7886C20.9302 38.1907 19.8039 38.5977 18.678 39.0047C18.2988 39.1417 17.9196 39.2788 17.5405 39.4156C16.9615 39.6324 16.3769 39.8361 15.7694 39.9555C14.871 40.1532 13.9492 40.2217 13.0316 40.2361C12.2085 40.1988 11.3639 40.1541 10.5913 39.8408C10.3135 39.7201 10.0123 39.5597 9.89167 39.2655C9.79579 39.0161 9.9389 38.7583 10.1143 38.5839C10.4908 38.2123 10.9916 38.0044 11.4799 37.8203C12.8252 37.3414 14.1701 36.8604 15.5151 36.3794C17.6909 35.6013 19.867 34.8231 22.0455 34.0533C22.0666 33.8852 22.065 33.7158 22.0633 33.5465C22.0627 33.4787 22.062 33.411 22.0629 33.3433C22.0617 32.6241 22.0622 31.9051 22.0627 31.1862C22.0634 30.1594 22.0642 29.133 22.06 28.1069C19.4917 29.0097 16.9255 29.9196 14.3594 30.8296Z" fill="#EBEBF5"/>
<path d="M47.3283 30.6795C46.4036 30.7119 45.4786 30.7442 44.5591 30.8502C41.7409 31.1733 38.9424 31.7416 36.2631 32.6791C36.2616 33.996 36.2618 35.3126 36.262 36.6293C36.2622 37.3608 36.2623 38.0924 36.2621 38.8242C38.318 38.1085 40.3713 37.3867 42.4248 36.6649C44.0715 36.086 45.7184 35.5071 47.3666 34.9314C48.5993 34.5169 49.9065 34.3579 51.2024 34.3491C52.0302 34.3724 52.8776 34.4316 53.6558 34.7388C53.9303 34.8577 54.2287 35.0162 54.3536 35.3029C54.4733 35.6311 54.2343 35.9351 53.9902 36.1262C53.5196 36.5012 52.9487 36.6984 52.3834 36.8937C52.2325 36.9458 52.082 36.9978 51.9338 37.0531L51.1223 37.3417C46.1938 39.0949 41.266 40.8479 36.337 42.5958C36.2569 42.6107 36.2595 42.688 36.2618 42.7582C36.2626 42.7823 36.2634 42.8056 36.2607 42.8251C36.2626 43.9371 36.2623 45.0496 36.262 46.1624C36.2618 46.9574 36.2616 47.7525 36.2621 48.5478C41.6116 46.6303 46.9625 44.7151 52.3133 42.8C53.7964 42.2691 55.2795 41.7383 56.7626 41.2074C57.0403 41.1049 57.3198 41.0063 57.5994 40.9077C58.4467 40.6088 59.2947 40.3096 60.0975 39.9016C61.1002 39.3953 62.0992 38.8144 62.8549 37.9696C63.2525 37.5197 63.5293 36.9342 63.4975 36.3234C63.4914 35.5738 63.0289 34.9169 62.493 34.4297C61.6006 33.6306 60.4848 33.1383 59.3698 32.7323C59.0804 32.6405 58.7947 32.5384 58.509 32.4363C58.1775 32.3179 57.8461 32.1995 57.509 32.0973C54.3101 31.0968 50.9485 30.6824 47.6046 30.6698C47.5125 30.6731 47.4204 30.6763 47.3283 30.6795Z" fill="#EBEBF5"/>
</svg>

<svg width="64" height="50" fill="none" xmlns="http://www.w3.org/2000/svg"><path d="M32.171 2.764c-2.68-.758-5.373-1.485-8.113-1.994-.002 15.072-.003 30.144 0 45.216l10.26 3.246c.004-7.358.003-14.716.003-22.074-.001-5.314-.002-10.628 0-15.942.021-.718.143-1.485.606-2.062.279-.36.76-.55 1.21-.465.445.093.888.267 1.23.574.515.444.783 1.104.905 1.758.134.653.13 1.318.125 1.982a2314.015 2314.015 0 0 1 0 5.92c-.003 2.955-.005 5.91.011 8.865 1.428.663 2.972 1.168 4.563 1.152a6.176 6.176 0 0 0 3.033-.713c.964-.515 1.758-1.316 2.33-2.24.647-1.048 1.036-2.238 1.255-3.444.264-1.388.267-2.806.222-4.212-.096-2.155-.418-4.346-1.36-6.308a10.238 10.238 0 0 0-2.084-2.916c-.794-.808-1.724-1.47-2.692-2.056-2.161-1.28-4.537-2.137-6.923-2.894a161.82 161.82 0 0 0-4.58-1.393zM14.36 30.83c-1.89.67-3.781 1.34-5.672 2.008-.326.118-.653.232-.98.347-.766.267-1.531.535-2.278.852-1.236.517-2.456 1.098-3.561 1.86-.478.324-.912.741-1.16 1.27a2.19 2.19 0 0 0-.066 1.71c.246.648.732 1.174 1.274 1.593.986.747 2.16 1.2 3.34 1.541a33.557 33.557 0 0 0 11.184 1.68c1.881-.03 3.754-.254 5.606-.586.02-.198.017-.398.016-.598-.001-.096-.002-.192 0-.288-.002-.551-.001-1.102 0-1.654 0-.926.001-1.851-.005-2.776-1.128.402-2.254.809-3.38 1.216l-1.137.41c-.58.217-1.164.421-1.772.54-.898.198-1.82.267-2.737.281-.823-.037-1.668-.082-2.44-.395-.279-.12-.58-.281-.7-.575-.096-.25.047-.508.222-.682.377-.372.878-.58 1.366-.764l4.035-1.44c2.176-.779 4.352-1.557 6.53-2.327a3.76 3.76 0 0 0 .018-.506v-2.361c0-1.027.001-2.053-.003-3.08-2.568.904-5.134 1.814-7.7 2.724z" fill="#EBEBF5"/><path d="M47.328 30.68c-.924.032-1.85.064-2.769.17-2.818.323-5.617.892-8.296 1.83l-.001 3.95v2.194c2.056-.715 4.11-1.437 6.163-2.16 1.647-.578 3.293-1.157 4.942-1.733 1.232-.414 2.54-.573 3.835-.582.828.023 1.676.083 2.454.39.274.119.573.277.698.564.12.328-.12.632-.364.823-.47.375-1.041.572-1.607.768-.15.052-.301.104-.45.16l-.81.288c-4.93 1.753-9.857 3.506-14.786 5.254-.08.015-.078.092-.075.162 0 .024.001.048-.001.067.002 1.112.001 2.225.001 3.337v2.386c5.35-1.918 10.7-3.833 16.051-5.748l4.45-1.593c.277-.102.557-.2.836-.3.848-.298 1.696-.597 2.498-1.005 1.003-.507 2.002-1.088 2.758-1.932.398-.45.674-1.036.643-1.647-.007-.75-.47-1.406-1.005-1.893-.892-.8-2.008-1.292-3.123-1.698-.29-.091-.575-.194-.861-.296-.331-.118-.663-.236-1-.339-3.199-1-6.56-1.415-9.904-1.427l-.277.01z" fill="#EBEBF5"/></svg>
